X:692
T:Engelska från Nättraby
R:Engelska
D:Björlert, Löfberg, Pekkari - Mikaelidansen
Z:Transkription till abc av Jon Magnusson
O:Nättraby, Blekinge
M:2/4
L:1/8
K:A
ea ga| ea ga|ea ga| f2 d2|df ff| df ff|df af| f2 e2|
ea ga| ea ga|ea ga| f2 d2|de fg| af ec|B2 A2| A4:|
ce ee| ce ee|ce ee| fe dc|df ff| df ff|df af| f2 e2|
ce ee| ce ee|ce ee| fe dc|de fg| af ec|B2 A2| A4:|
(:musicend:)



(:music:)
